static/images/past-sponsors/exein.svg

<svg fill="none" height="106" viewBox="0 0 343 106" width="343" xmlns="http://www.w3.org/2000/svg"><path clip-rule="evenodd" d="m37.7986 65.3214c-1.5488-.869-1.5488-3.0985 0-3.968l14.2975-8.0264-14.2975-8.0263c-1.5488-.8695-1.5488-3.099 0-3.968l30.0113-16.8481c1.3838-.7768 3.0719-.7768 4.4553 0l30.0118 16.8481c1.549.869 1.549 3.0985 0 3.968l-14.2976 8.0263 14.2976 8.0264c1.549.8695 1.549 3.099 0 3.968l-30.0118 16.848c-1.3834.7769-3.0715.7769-4.4553 0zm32.8135-37.892 28.2998 15.8873-11.307 6.3471c-1.6909-8.1522-8.9138-14.2786-17.5674-14.2786-8.6535 0-15.876 6.1264-17.5673 14.2786l-11.3065-6.3471 28.2997-15.8873c.3565-.2001.7917-.2001 1.1487 0zm-.5746 11.3335c7.3754 0 13.4704 5.4821 14.4325 12.5941l-12.2048-6.8516c-1.3834-.7765-3.0715-.7765-4.4553 0l-12.2043 6.8516c.9616-7.112 7.0566-12.5941 14.4319-12.5941zm-2.2276 23.3854-12.2043-6.8512c.9616 7.1119 7.0566 12.5941 14.4319 12.5941 7.3754 0 13.4704-5.4822 14.4325-12.5941l-12.2048 6.8512c-1.3834.7768-3.0715.7768-4.4553 0zm2.2276 9.1201c-8.6535 0-15.876-6.1259-17.5673-14.2782l-11.3065 6.3472 28.2997 15.8868c.3565.2005.7917.2005 1.1487 0l28.2998-15.8868-11.307-6.3472c-1.6909 8.1523-8.9138 14.2782-17.5674 14.2782zm11.0422-17.9414-10.4676 5.8765c-.357.2001-.7922.2001-1.1487 0l-10.468-5.8765 10.468-5.8764c.3565-.2001.7917-.2001 1.1487 0zm57.2113 20.571c-3.993 0-7.487-.8407-10.482-2.5221-2.995-1.734-5.334-4.151-7.015-7.2508-1.629-3.1529-2.443-6.7523-2.443-10.7981 0-4.0983.788-7.6977 2.364-10.798 1.629-3.0999 3.889-5.4907 6.778-7.1722 2.89-1.734 6.201-2.6008 9.931-2.6008 3.678 0 6.936.7621 9.773 2.2857 2.838 1.5236 5.071 3.7306 6.7 6.6205s2.496 6.2789 2.601 10.1673c0 .9108-.057 1.8536-.158 2.7586h-31.211v.5516c.052 2.5748.604 4.8604 1.655 6.857 1.103 1.944 2.601 3.4681 4.493 4.5714 1.891 1.0511 4.072 1.5762 6.542 1.5762 2.889 0 5.332-.709 7.329-2.1279 2.049-1.4714 3.416-3.4941 4.099-6.0688h6.541c-.525 2.6799-1.602 5.0968-3.231 7.2512-1.577 2.1018-3.599 3.7567-6.069 4.9652-2.417 1.1559-5.149 1.734-8.197 1.734zm-.788-35.4674c-1.997 0-3.862.4469-5.596 1.3402-1.734.8929-3.179 2.1805-4.335 3.8619-1.156 1.6289-1.839 3.4942-2.049 5.596h24.276c-.316-3.4155-1.603-6.0689-3.862-7.9608-2.207-1.8914-5.019-2.8373-8.434-2.8373zm79.721 35.4674c-3.993 0-7.487-.8407-10.483-2.5221-2.994-1.734-5.332-4.151-7.014-7.2508-1.629-3.1529-2.443-6.7523-2.443-10.7981 0-4.0983.788-7.6977 2.364-10.798 1.629-3.0999 3.888-5.4907 6.778-7.1722 2.89-1.734 6.201-2.6008 9.931-2.6008 3.678 0 6.936.7621 9.774 2.2857 2.837 1.5236 5.07 3.7306 6.699 6.6205s2.496 6.2789 2.601 10.1673c0 .9108-.057 1.8536-.158 2.7586h-31.211v.5516c.053 2.5748.604 4.8604 1.655 6.857 1.104 1.944 2.601 3.4681 4.493 4.5714 1.891 1.0511 4.072 1.5762 6.541 1.5762 2.89 0 5.334-.709 7.33-2.1279 2.05-1.4714 3.416-3.4941 4.099-6.0688h6.542c-.526 2.6799-1.603 5.0968-3.232 7.2512-1.576 2.1018-3.599 3.7567-6.069 4.9652-2.417 1.1559-5.149 1.734-8.197 1.734zm-.788-35.4674c-1.997 0-3.862.4469-5.596 1.3402-1.734.8929-3.179 2.1805-4.335 3.8619-1.156 1.6289-1.839 3.4942-2.049 5.596h24.275c-.315-3.4155-1.602-6.0689-3.862-7.9608-2.207-1.8914-5.018-2.8373-8.433-2.8373zm59.605-5.2016.877 5.4696c1.197-1.5124 2.691-2.8104 4.483-3.8934 2.311-1.3663 5.228-2.0492 8.748-2.0492 4.887 0 8.801 1.4711 11.744 4.4136 2.995 2.9425 4.492 7.5664 4.492 13.8718v22.3837h-6.463v-21.9895c0-4.1514-.945-7.3038-2.837-9.4582-1.839-2.2066-4.519-3.3103-8.039-3.3103-2.522 0-4.703.6042-6.542 1.8127-1.787 1.1563-3.179 2.8378-4.178 5.0443-.945 2.207-1.418 4.8078-1.418 7.8029v20.0981h-6.463v-40.1961zm-37.467-.0005v5.9111h11.349v28.3739h-11.349v5.9111h27.141v-5.9111h-9.329v-29.0892c0-2.8696-2.327-5.1958-5.196-5.1958zm-72.062.0005h-7.725l14.266 19.5464-15.29 20.6497h7.172l11.823-16.1571 11.822 16.1571h7.724l-15.369-20.6497 14.344-19.5464h-7.172l-10.876 14.8964z" fill="#000" fill-rule="evenodd"/></svg>

<svg width="343" height="106" viewBox="0 0 343 106" fill="none" xmlns="http://www.w3.org/2000/svg">
<path fill-rule="evenodd" clip-rule="evenodd" d="M37.7986 65.3214C36.2498 64.4524 36.2498 62.2229 37.7986 61.3534L52.0961 53.327L37.7986 45.3007C36.2498 44.4312 36.2498 42.2017 37.7986 41.3327L67.8099 24.4846C69.1937 23.7078 70.8818 23.7078 72.2652 24.4846L102.277 41.3327C103.826 42.2017 103.826 44.4312 102.277 45.3007L87.9794 53.327L102.277 61.3534C103.826 62.2229 103.826 64.4524 102.277 65.3214L72.2652 82.1694C70.8818 82.9463 69.1937 82.9463 67.8099 82.1694L37.7986 65.3214ZM70.6121 27.4294L98.9119 43.3167L87.6049 49.6638C85.914 41.5116 78.6911 35.3852 70.0375 35.3852C61.384 35.3852 54.1615 41.5116 52.4702 49.6638L41.1637 43.3167L69.4634 27.4294C69.8199 27.2293 70.2551 27.2293 70.6121 27.4294ZM70.0375 38.7629C77.4129 38.7629 83.5079 44.245 84.47 51.357L72.2652 44.5054C70.8818 43.7289 69.1937 43.7289 67.8099 44.5054L55.6056 51.357C56.5672 44.245 62.6622 38.7629 70.0375 38.7629ZM67.8099 62.1483L55.6056 55.2971C56.5672 62.409 62.6622 67.8912 70.0375 67.8912C77.4129 67.8912 83.5079 62.409 84.47 55.2971L72.2652 62.1483C70.8818 62.9251 69.1937 62.9251 67.8099 62.1483ZM70.0375 71.2684C61.384 71.2684 54.1615 65.1425 52.4702 56.9902L41.1637 63.3374L69.4634 79.2242C69.8199 79.4247 70.2551 79.4247 70.6121 79.2242L98.9119 63.3374L87.6049 56.9902C85.914 65.1425 78.6911 71.2684 70.0375 71.2684ZM81.0797 53.327L70.6121 59.2035C70.2551 59.4036 69.8199 59.4036 69.4634 59.2035L58.9954 53.327L69.4634 47.4506C69.8199 47.2505 70.2551 47.2505 70.6121 47.4506L81.0797 53.327ZM138.291 73.898C134.298 73.898 130.804 73.0573 127.809 71.3759C124.814 69.6419 122.475 67.2249 120.794 64.1251C119.165 60.9722 118.351 57.3728 118.351 53.327C118.351 49.2287 119.139 45.6293 120.715 42.529C122.344 39.4291 124.604 37.0383 127.493 35.3568C130.383 33.6228 133.694 32.756 137.424 32.756C141.102 32.756 144.36 33.5181 147.197 35.0417C150.035 36.5653 152.268 38.7723 153.897 41.6622C155.526 44.5521 156.393 47.9411 156.498 51.8295C156.498 52.7403 156.441 53.6831 156.34 54.5881H125.129V55.1397C125.181 57.7145 125.733 60.0001 126.784 61.9967C127.887 63.9407 129.385 65.4648 131.277 66.5681C133.168 67.6192 135.349 68.1443 137.819 68.1443C140.708 68.1443 143.151 67.4353 145.148 66.0164C147.197 64.545 148.564 62.5223 149.247 59.9476H155.788C155.263 62.6275 154.186 65.0444 152.557 67.1988C150.98 69.3006 148.958 70.9555 146.488 72.164C144.071 73.3199 141.339 73.898 138.291 73.898ZM137.503 38.4306C135.506 38.4306 133.641 38.8775 131.907 39.7708C130.173 40.6637 128.728 41.9513 127.572 43.6327C126.416 45.2616 125.733 47.1269 125.523 49.2287H149.799C149.483 45.8132 148.196 43.1598 145.937 41.2679C143.73 39.3765 140.918 38.4306 137.503 38.4306ZM217.224 73.898C213.231 73.898 209.737 73.0573 206.741 71.3759C203.747 69.6419 201.409 67.2249 199.727 64.1251C198.098 60.9722 197.284 57.3728 197.284 53.327C197.284 49.2287 198.072 45.6293 199.648 42.529C201.277 39.4291 203.536 37.0383 206.426 35.3568C209.316 33.6228 212.627 32.756 216.357 32.756C220.035 32.756 223.293 33.5181 226.131 35.0417C228.968 36.5653 231.201 38.7723 232.83 41.6622C234.459 44.5521 235.326 47.9411 235.431 51.8295C235.431 52.7403 235.374 53.6831 235.273 54.5881H204.062V55.1397C204.115 57.7145 204.666 60.0001 205.717 61.9967C206.821 63.9407 208.318 65.4648 210.21 66.5681C212.101 67.6192 214.282 68.1443 216.751 68.1443C219.641 68.1443 222.085 67.4353 224.081 66.0164C226.131 64.545 227.497 62.5223 228.18 59.9476H234.722C234.196 62.6275 233.119 65.0444 231.49 67.1988C229.914 69.3006 227.891 70.9555 225.421 72.164C223.004 73.3199 220.272 73.898 217.224 73.898ZM216.436 38.4306C214.439 38.4306 212.574 38.8775 210.84 39.7708C209.106 40.6637 207.661 41.9513 206.505 43.6327C205.349 45.2616 204.666 47.1269 204.456 49.2287H228.731C228.416 45.8132 227.129 43.1598 224.869 41.2679C222.662 39.3765 219.851 38.4306 216.436 38.4306ZM276.041 33.229L276.918 38.6986C278.115 37.1862 279.609 35.8882 281.401 34.8052C283.712 33.4389 286.629 32.756 290.149 32.756C295.036 32.756 298.95 34.2271 301.893 37.1696C304.888 40.1121 306.385 44.736 306.385 51.0414V73.4251H299.922V51.4356C299.922 47.2842 298.977 44.1318 297.085 41.9774C295.246 39.7708 292.566 38.6671 289.046 38.6671C286.524 38.6671 284.343 39.2713 282.504 40.4798C280.717 41.6361 279.325 43.3176 278.326 45.5241C277.381 47.7311 276.908 50.3319 276.908 53.327V73.4251H270.445V33.229H276.041ZM238.574 33.2285V39.1396H249.923V67.5135H238.574V73.4246H265.715V67.5135H256.386V38.4243C256.386 35.5547 254.059 33.2285 251.19 33.2285H238.574ZM166.512 33.229H158.787L173.053 52.7754L157.763 73.4251H164.935L176.758 57.268L188.58 73.4251H196.304L180.935 52.7754L195.279 33.229H188.107L177.231 48.1254L166.512 33.229Z" fill="black"/>
</svg>
